X:233
T: WIR HABEN UNS BESONNEN
N: Z0232
O: Europa, Mitteleuropa, Deutschland
N: Reiselied
R: Schiffer -, Handwerker - Lied
M: 3/4
L: 1/16
K: G
G2B2 | d3ed4c4 | B6c2d4 |
d2d2e2d2c2B2 | A4F4D4 |
d2ded2c2B4 | d2e2d2c2B4 |
A2A2A2A2G2A2 | c4B4

@@@ Tune index: 9991
